X: 591
T: Achonry Lasses, The
R: reel
M: 4/4
K: Gmajor
~G3B DG~G2|dBcA (3Bcd AF|DFAD FADA|dBcA (3Bcd AF|
~G2BG DG~G2|dBcA (3Bcd AF|DF~F2 ~F3A|dBcA BGG2:|
|:gd~d2 fd~d2|edcB cdef|~g2fa gedg|(3fed cA AGG2|
gb~b2 fadg|edcB cdef|~g2af gedg|edcA AGG2:|

